X: 185
T: All For Me Grog
M:4/4
R:song
L:1/8
Z:added by Alf warnock alf0@rogers.com -
K:D
%%text Intro & Ending
de|"D"fagf "G"gedc|"A7"e2e2 "D"d4||
%%text Verse and chorus
|: "D"D2FE D2>A,2|"G"B,CDB, "D"A,4| A2AA A2GF|"A7"F2E4FG|
"D"A2AF D2DC|"G"B,CDB, "D"A,2DE|FAGF "G"GECD|"A7"E2E2 "D"D4:|

